src/img/icons/pdf.svg

<svg width="32" height="32" viewBox="0 0 32 32" fill="none" xmlns="http://www.w3.org/2000/svg">
<path d="M12.7837 14.1621H14.3515C14.7035 14.1621 14.9988 14.043 15.2372 13.8048C15.4754 13.5665 15.5945 13.2713 15.5945 12.919V11.3513C15.5945 10.999 15.4754 10.7037 15.2372 10.4655C14.9988 10.2273 14.7035 10.1082 14.3515 10.1082H12.1622C11.9964 10.1082 11.8512 10.1704 11.7269 10.2948C11.6027 10.4189 11.5406 10.5639 11.5406 10.7297V16.3514C11.5406 16.5172 11.6027 16.6622 11.7269 16.7863C11.8512 16.9107 11.9964 16.9729 12.1622 16.9729C12.328 16.9729 12.473 16.9107 12.5972 16.7863C12.7215 16.6622 12.7837 16.5172 12.7837 16.3514V14.1621ZM12.7837 12.919V11.3513H14.3515V12.919H12.7837ZM19.7837 16.9729C20.136 16.9729 20.4312 16.8538 20.6695 16.6156C20.9079 16.3774 21.0271 16.0821 21.0271 15.7298V11.3513C21.0271 10.999 20.9079 10.7037 20.6695 10.4655C20.4312 10.2273 20.136 10.1082 19.7837 10.1082H17.6485C17.4829 10.1082 17.3379 10.1704 17.2136 10.2948C17.0892 10.4189 17.027 10.5639 17.027 10.7297V16.3514C17.027 16.5172 17.0892 16.6622 17.2136 16.7863C17.3379 16.9107 17.4829 16.9729 17.6485 16.9729H19.7837ZM18.2701 15.7298V11.3513H19.7837V15.7298H18.2701ZM23.8379 14.1621H24.892C25.0576 14.1621 25.2026 14.0999 25.327 13.9755C25.4514 13.8514 25.5135 13.7064 25.5135 13.5405C25.5135 13.3747 25.4514 13.2297 25.327 13.1056C25.2026 12.9812 25.0576 12.919 24.892 12.919H23.8379V11.3513H24.892C25.0576 11.3513 25.2026 11.2891 25.327 11.1647C25.4514 11.0406 25.5135 10.8956 25.5135 10.7297C25.5135 10.5639 25.4514 10.4189 25.327 10.2948C25.2026 10.1704 25.0576 10.1082 24.892 10.1082H23.2161C23.0505 10.1082 22.9055 10.1704 22.7811 10.2948C22.6567 10.4189 22.5945 10.5639 22.5945 10.7297V16.3514C22.5945 16.5172 22.6567 16.6622 22.7811 16.7863C22.9055 16.9107 23.0505 16.9729 23.2161 16.9729C23.3819 16.9729 23.527 16.9107 23.6514 16.7863C23.7758 16.6622 23.8379 16.5172 23.8379 16.3514V14.1621ZM10.4595 24.0811C9.74958 24.0811 9.14865 23.8351 8.65676 23.3432C8.16487 22.8514 7.91892 22.2504 7.91892 21.5405V5.54062C7.91892 4.83066 8.16487 4.22973 8.65676 3.73784C9.14865 3.24595 9.74958 3 10.4595 3H26.4594C27.1693 3 27.7703 3.24595 28.2622 3.73784C28.7541 4.22973 29 4.83066 29 5.54062V21.5405C29 22.2504 28.7541 22.8514 28.2622 23.3432C27.7703 23.8351 27.1693 24.0811 26.4594 24.0811H10.4595ZM10.4595 21.973H26.4594C26.5676 21.973 26.6667 21.9279 26.7566 21.8377C26.8468 21.7478 26.8919 21.6487 26.8919 21.5405V5.54062C26.8919 5.43241 26.8468 5.33332 26.7566 5.24338C26.6667 5.1532 26.5676 5.10811 26.4594 5.10811H10.4595C10.3513 5.10811 10.2522 5.1532 10.1623 5.24338C10.0721 5.33332 10.027 5.43241 10.027 5.54062V21.5405C10.027 21.6487 10.0721 21.7478 10.1623 21.8377C10.2522 21.9279 10.3513 21.973 10.4595 21.973ZM5.54062 29C4.83066 29 4.22973 28.7541 3.73784 28.2622C3.24595 27.7703 3 27.1693 3 26.4594V9.40549C3 9.10684 3.10107 8.85644 3.30322 8.6543C3.50536 8.45239 3.75576 8.35143 4.05441 8.35143C4.35329 8.35143 4.60368 8.45239 4.80559 8.6543C5.00727 8.85644 5.10811 9.10684 5.10811 9.40549V26.4594C5.10811 26.5676 5.1532 26.6667 5.24338 26.7566C5.33332 26.8468 5.43241 26.8919 5.54062 26.8919H22.5945C22.8932 26.8919 23.1436 26.993 23.3457 27.1951C23.5476 27.3973 23.6486 27.6476 23.6486 27.9463C23.6486 28.2452 23.5476 28.4955 23.3457 28.6971C23.1436 28.899 22.8932 29 22.5945 29H5.54062Z" fill="#131212"/>
</svg>

<svg xmlns="http://www.w3.org/2000/svg" viewBox="0 0 32 32">
  <path fill="currentColor" d="M12.784 14.162h1.567c.352 0 .648-.119.886-.357.238-.239.357-.534.357-.886v-1.568c0-.352-.119-.647-.357-.886a1.204 1.204 0 0 0-.886-.357h-2.189a.596.596 0 0 0-.435.187.596.596 0 0 0-.186.435v5.621c0 .166.062.311.186.435.124.125.27.187.435.187a.593.593 0 0 0 .435-.187.596.596 0 0 0 .187-.435v-2.189Zm0-1.243v-1.568h1.567v1.568h-1.567Zm7 4.054c.352 0 .647-.12.886-.357.238-.239.357-.534.357-.886v-4.38c0-.352-.12-.647-.358-.886a1.203 1.203 0 0 0-.885-.357h-2.136a.596.596 0 0 0-.434.187.595.595 0 0 0-.187.435v5.621c0 .166.062.311.187.435a.593.593 0 0 0 .434.187h2.136ZM18.27 15.73v-4.38h1.514v4.379H18.27Zm5.568-1.568h1.054c.166 0 .31-.062.435-.187a.595.595 0 0 0 .186-.434.595.595 0 0 0-.186-.435.596.596 0 0 0-.435-.187h-1.054v-1.568h1.054c.166 0 .31-.062.435-.186a.595.595 0 0 0 .186-.435.595.595 0 0 0-.186-.435.596.596 0 0 0-.435-.187h-1.676a.596.596 0 0 0-.435.187.595.595 0 0 0-.186.435v5.621c0 .166.062.311.186.435a.597.597 0 0 0 .87 0 .595.595 0 0 0 .187-.435v-2.189Zm-13.379 9.92c-.71 0-1.31-.247-1.802-.739a2.452 2.452 0 0 1-.738-1.802v-16c0-.71.246-1.311.738-1.803A2.452 2.452 0 0 1 10.46 3h16c.71 0 1.31.246 1.802.738S29 4.83 29 5.54v16c0 .71-.246 1.31-.738 1.802a2.453 2.453 0 0 1-1.803.738h-16Zm0-2.109h16a.412.412 0 0 0 .298-.135.412.412 0 0 0 .135-.297v-16a.412.412 0 0 0-.135-.298.412.412 0 0 0-.298-.135h-16a.412.412 0 0 0-.297.135.412.412 0 0 0-.135.298v16c0 .108.045.207.135.297.09.09.19.135.297.135ZM5.542 29c-.71 0-1.311-.246-1.803-.738A2.453 2.453 0 0 1 3 26.46V9.405c0-.298.101-.549.303-.75a1.02 1.02 0 0 1 .751-.304c.3 0 .55.101.752.303.201.202.302.453.302.751V26.46c0 .109.045.208.135.298.09.09.19.135.298.135h17.053c.3 0 .55.101.752.303.202.202.303.453.303.751 0 .3-.101.55-.303.751a1.02 1.02 0 0 1-.752.303H5.541Z"/>
</svg>
